app/assets/images/icons/active/gym.svg

<?xml version="1.0" encoding="UTF-8" standalone="no"?>
<svg width="32px" height="232px" viewBox="0 0 32 232" version="1.1" xmlns="http://www.w3.org/2000/svg" xmlns:xlink="http://www.w3.org/1999/xlink" xmlns:sketch="http://www.bohemiancoding.com/sketch/ns">
    <title>gym</title>
    <description>Created with Sketch (http://www.bohemiancoding.com/sketch)</description>
    <defs></defs>
    <g id="Hotel-facilities" stroke="none" stroke-width="1" fill="none" fill-rule="evenodd" sketch:type="MSPage">
        <path d="M18.7433687,135.05203 C18.882626,135.19203 19.0497347,135.30403 19.2307692,135.38103 C19.3769894,135.43903 19.5242042,135.46003 19.6833554,135.47303 C19.7201592,135.47603 19.762931,135.49503 19.8017241,135.49503 L22.8653846,135.49503 C23.6870027,135.49503 24.3554377,134.83303 24.3554377,134.00903 C24.3554377,133.18703 23.6870027,132.50903 22.8653846,132.50903 L20.4144562,132.50903 L17.0195623,129.08803 C17.0155836,129.08803 17.0155836,129.08603 17.0155836,129.08103 C16.7281167,128.79203 16.3481432,128.64503 15.9612069,128.64503 C15.5802387,128.64503 15.1972812,128.79203 14.9018568,129.08103 C14.8988727,129.08803 14.8968833,129.09503 14.8909151,129.10203 L11.0752653,132.94503 C10.7838196,133.23403 10.6395889,133.61803 10.6395889,134.00403 C10.6395889,134.38403 10.7838196,134.76803 11.0752653,135.05403 L14.4791114,138.48103 L14.4791114,144.20003 C14.4791114,145.02903 15.1435676,145.70603 15.9572281,145.70603 C16.7828249,145.70603 17.4572281,145.02903 17.4572281,144.20003 L17.4572281,137.86203 C17.4572281,137.81203 17.4353448,137.77203 17.4333554,137.72403 C17.4144562,137.57903 17.3985411,137.42603 17.3428382,137.28803 C17.2592838,137.10503 17.1498674,136.94103 17.0155836,136.80203 L17.0155836,136.80003 L14.2324271,134.00203 L15.9612069,132.25603 L18.7433687,135.05203 Z M7.1193634,136.69503 C3.74137931,136.69503 1,139.45603 1,142.84803 C1,146.23603 3.74137931,149.00003 7.1193634,149.00003 C10.4983422,149.00003 13.2466844,146.23603 13.2466844,142.84803 C13.2466844,139.45603 10.4983422,136.69503 7.1193634,136.69503 Z M7.1193634,146.61803 C5.05835544,146.61803 3.37632626,144.92303 3.37632626,142.84803 C3.37632626,140.77603 5.05835544,139.08903 7.1193634,139.08903 C9.18435013,139.08903 10.8653846,140.77603 10.8653846,142.84803 C10.8653846,144.92303 9.18435013,146.61803 7.1193634,146.61803 Z M19.9111406,125.00003 C18.6011273,125.00003 17.5288462,126.06603 17.5288462,127.38803 C17.5288462,128.72303 18.6011273,129.79003 19.9111406,129.79003 C21.2281167,129.79003 22.2884615,128.72303 22.2884615,127.38803 C22.2884615,126.06603 21.2281167,125.00003 19.9111406,125.00003 Z M24.8766578,136.69503 C21.4996684,136.69503 18.7513263,139.45603 18.7513263,142.84803 C18.7513263,146.23603 21.4996684,149.00003 24.8766578,149.00003 C28.2506631,149.00003 31,146.23603 31,142.84803 C31,139.45603 28.2506631,136.69503 24.8766578,136.69503 Z M24.8766578,146.61803 C22.8076923,146.61803 21.1286472,144.92303 21.1286472,142.84803 C21.1286472,140.77603 22.8076923,139.08903 24.8766578,139.08903 C26.9396552,139.08903 28.6236737,140.77603 28.6236737,142.84803 C28.6236737,144.92303 26.9396552,146.61803 24.8766578,146.61803 Z M24.8766578,146.61803" id="gym--white" fill="#206FAC" sketch:type="MSShapeGroup"></path>
        <path d="M18.7433687,95.0520303 C18.882626,95.1920303 19.0497347,95.3040303 19.2307692,95.3810303 C19.3769894,95.4390303 19.5242042,95.4600303 19.6833554,95.4730303 C19.7201592,95.4760303 19.762931,95.4950303 19.8017241,95.4950303 L22.8653846,95.4950303 C23.6870027,95.4950303 24.3554377,94.8330303 24.3554377,94.0090303 C24.3554377,93.1870303 23.6870027,92.5090303 22.8653846,92.5090303 L20.4144562,92.5090303 L17.0195623,89.0880303 C17.0155836,89.0880303 17.0155836,89.0860303 17.0155836,89.0810303 C16.7281167,88.7920303 16.3481432,88.6450303 15.9612069,88.6450303 C15.5802387,88.6450303 15.1972812,88.7920303 14.9018568,89.0810303 C14.8988727,89.0880303 14.8968833,89.0950303 14.8909151,89.1020303 L11.0752653,92.9450303 C10.7838196,93.2340303 10.6395889,93.6180303 10.6395889,94.0040303 C10.6395889,94.3840303 10.7838196,94.7680303 11.0752653,95.0540303 L14.4791114,98.4810303 L14.4791114,104.20003 C14.4791114,105.02903 15.1435676,105.70603 15.9572281,105.70603 C16.7828249,105.70603 17.4572281,105.02903 17.4572281,104.20003 L17.4572281,97.8620303 C17.4572281,97.8120303 17.4353448,97.7720303 17.4333554,97.7240303 C17.4144562,97.5790303 17.3985411,97.4260303 17.3428382,97.2880303 C17.2592838,97.1050303 17.1498674,96.9410303 17.0155836,96.8020303 L17.0155836,96.8000303 L14.2324271,94.0020303 L15.9612069,92.2560303 L18.7433687,95.0520303 Z M7.1193634,96.6950303 C3.74137931,96.6950303 1,99.4560303 1,102.84803 C1,106.23603 3.74137931,109.00003 7.1193634,109.00003 C10.4983422,109.00003 13.2466844,106.23603 13.2466844,102.84803 C13.2466844,99.4560303 10.4983422,96.6950303 7.1193634,96.6950303 Z M7.1193634,106.61803 C5.05835544,106.61803 3.37632626,104.92303 3.37632626,102.84803 C3.37632626,100.77603 5.05835544,99.0890303 7.1193634,99.0890303 C9.18435013,99.0890303 10.8653846,100.77603 10.8653846,102.84803 C10.8653846,104.92303 9.18435013,106.61803 7.1193634,106.61803 Z M19.9111406,85.0000303 C18.6011273,85.0000303 17.5288462,86.0660303 17.5288462,87.3880303 C17.5288462,88.7230303 18.6011273,89.7900303 19.9111406,89.7900303 C21.2281167,89.7900303 22.2884615,88.7230303 22.2884615,87.3880303 C22.2884615,86.0660303 21.2281167,85.0000303 19.9111406,85.0000303 Z M24.8766578,96.6950303 C21.4996684,96.6950303 18.7513263,99.4560303 18.7513263,102.84803 C18.7513263,106.23603 21.4996684,109.00003 24.8766578,109.00003 C28.2506631,109.00003 31,106.23603 31,102.84803 C31,99.4560303 28.2506631,96.6950303 24.8766578,96.6950303 Z M24.8766578,106.61803 C22.8076923,106.61803 21.1286472,104.92303 21.1286472,102.84803 C21.1286472,100.77603 22.8076923,99.0890303 24.8766578,99.0890303 C26.9396552,99.0890303 28.6236737,100.77603 28.6236737,102.84803 C28.6236737,104.92303 26.9396552,106.61803 24.8766578,106.61803 Z M24.8766578,106.61803" id="gym--white" fill="#FFFFFF" sketch:type="MSShapeGroup"></path>
        <path d="M18.7433687,55.0520303 C18.882626,55.1920303 19.0497347,55.3040303 19.2307692,55.3810303 C19.3769894,55.4390303 19.5242042,55.4600303 19.6833554,55.4730303 C19.7201592,55.4760303 19.762931,55.4950303 19.8017241,55.4950303 L22.8653846,55.4950303 C23.6870027,55.4950303 24.3554377,54.8330303 24.3554377,54.0090303 C24.3554377,53.1870303 23.6870027,52.5090303 22.8653846,52.5090303 L20.4144562,52.5090303 L17.0195623,49.0880303 C17.0155836,49.0880303 17.0155836,49.0860303 17.0155836,49.0810303 C16.7281167,48.7920303 16.3481432,48.6450303 15.9612069,48.6450303 C15.5802387,48.6450303 15.1972812,48.7920303 14.9018568,49.0810303 C14.8988727,49.0880303 14.8968833,49.0950303 14.8909151,49.1020303 L11.0752653,52.9450303 C10.7838196,53.2340303 10.6395889,53.6180303 10.6395889,54.0040303 C10.6395889,54.3840303 10.7838196,54.7680303 11.0752653,55.0540303 L14.4791114,58.4810303 L14.4791114,64.2000303 C14.4791114,65.0290303 15.1435676,65.7060303 15.9572281,65.7060303 C16.7828249,65.7060303 17.4572281,65.0290303 17.4572281,64.2000303 L17.4572281,57.8620303 C17.4572281,57.8120303 17.4353448,57.7720303 17.4333554,57.7240303 C17.4144562,57.5790303 17.3985411,57.4260303 17.3428382,57.2880303 C17.2592838,57.1050303 17.1498674,56.9410303 17.0155836,56.8020303 L17.0155836,56.8000303 L14.2324271,54.0020303 L15.9612069,52.2560303 L18.7433687,55.0520303 Z M7.1193634,56.6950303 C3.74137931,56.6950303 1,59.4560303 1,62.8480303 C1,66.2360303 3.74137931,69.0000303 7.1193634,69.0000303 C10.4983422,69.0000303 13.2466844,66.2360303 13.2466844,62.8480303 C13.2466844,59.4560303 10.4983422,56.6950303 7.1193634,56.6950303 Z M7.1193634,66.6180303 C5.05835544,66.6180303 3.37632626,64.9230303 3.37632626,62.8480303 C3.37632626,60.7760303 5.05835544,59.0890303 7.1193634,59.0890303 C9.18435013,59.0890303 10.8653846,60.7760303 10.8653846,62.8480303 C10.8653846,64.9230303 9.18435013,66.6180303 7.1193634,66.6180303 Z M19.9111406,45.0000303 C18.6011273,45.0000303 17.5288462,46.0660303 17.5288462,47.3880303 C17.5288462,48.7230303 18.6011273,49.7900303 19.9111406,49.7900303 C21.2281167,49.7900303 22.2884615,48.7230303 22.2884615,47.3880303 C22.2884615,46.0660303 21.2281167,45.0000303 19.9111406,45.0000303 Z M24.8766578,56.6950303 C21.4996684,56.6950303 18.7513263,59.4560303 18.7513263,62.8480303 C18.7513263,66.2360303 21.4996684,69.0000303 24.8766578,69.0000303 C28.2506631,69.0000303 31,66.2360303 31,62.8480303 C31,59.4560303 28.2506631,56.6950303 24.8766578,56.6950303 Z M24.8766578,66.6180303 C22.8076923,66.6180303 21.1286472,64.9230303 21.1286472,62.8480303 C21.1286472,60.7760303 22.8076923,59.0890303 24.8766578,59.0890303 C26.9396552,59.0890303 28.6236737,60.7760303 28.6236737,62.8480303 C28.6236737,64.9230303 26.9396552,66.6180303 24.8766578,66.6180303 Z M24.8766578,66.6180303" id="gym--light-grey" fill="#67737B" sketch:type="MSShapeGroup"></path>
        <path d="M18.7433687,15.0520303 C18.882626,15.1920303 19.0497347,15.3040303 19.2307692,15.3810303 C19.3769894,15.4390303 19.5242042,15.4600303 19.6833554,15.4730303 C19.7201592,15.4760303 19.762931,15.4950303 19.8017241,15.4950303 L22.8653846,15.4950303 C23.6870027,15.4950303 24.3554377,14.8330303 24.3554377,14.0090303 C24.3554377,13.1870303 23.6870027,12.5090303 22.8653846,12.5090303 L20.4144562,12.5090303 L17.0195623,9.08803033 C17.0155836,9.08803033 17.0155836,9.08603033 17.0155836,9.08103033 C16.7281167,8.79203033 16.3481432,8.64503033 15.9612069,8.64503033 C15.5802387,8.64503033 15.1972812,8.79203033 14.9018568,9.08103033 C14.8988727,9.08803033 14.8968833,9.09503033 14.8909151,9.10203033 L11.0752653,12.9450303 C10.7838196,13.2340303 10.6395889,13.6180303 10.6395889,14.0040303 C10.6395889,14.3840303 10.7838196,14.7680303 11.0752653,15.0540303 L14.4791114,18.4810303 L14.4791114,24.2000303 C14.4791114,25.0290303 15.1435676,25.7060303 15.9572281,25.7060303 C16.7828249,25.7060303 17.4572281,25.0290303 17.4572281,24.2000303 L17.4572281,17.8620303 C17.4572281,17.8120303 17.4353448,17.7720303 17.4333554,17.7240303 C17.4144562,17.5790303 17.3985411,17.4260303 17.3428382,17.2880303 C17.2592838,17.1050303 17.1498674,16.9410303 17.0155836,16.8020303 L17.0155836,16.8000303 L14.2324271,14.0020303 L15.9612069,12.2560303 L18.7433687,15.0520303 Z M7.1193634,16.6950303 C3.74137931,16.6950303 1,19.4560303 1,22.8480303 C1,26.2360303 3.74137931,29.0000303 7.1193634,29.0000303 C10.4983422,29.0000303 13.2466844,26.2360303 13.2466844,22.8480303 C13.2466844,19.4560303 10.4983422,16.6950303 7.1193634,16.6950303 Z M7.1193634,26.6180303 C5.05835544,26.6180303 3.37632626,24.9230303 3.37632626,22.8480303 C3.37632626,20.7760303 5.05835544,19.0890303 7.1193634,19.0890303 C9.18435013,19.0890303 10.8653846,20.7760303 10.8653846,22.8480303 C10.8653846,24.9230303 9.18435013,26.6180303 7.1193634,26.6180303 Z M19.9111406,5.00003033 C18.6011273,5.00003033 17.5288462,6.06603033 17.5288462,7.38803033 C17.5288462,8.72303033 18.6011273,9.79003033 19.9111406,9.79003033 C21.2281167,9.79003033 22.2884615,8.72303033 22.2884615,7.38803033 C22.2884615,6.06603033 21.2281167,5.00003033 19.9111406,5.00003033 Z M24.8766578,16.6950303 C21.4996684,16.6950303 18.7513263,19.4560303 18.7513263,22.8480303 C18.7513263,26.2360303 21.4996684,29.0000303 24.8766578,29.0000303 C28.2506631,29.0000303 31,26.2360303 31,22.8480303 C31,19.4560303 28.2506631,16.6950303 24.8766578,16.6950303 Z M24.8766578,26.6180303 C22.8076923,26.6180303 21.1286472,24.9230303 21.1286472,22.8480303 C21.1286472,20.7760303 22.8076923,19.0890303 24.8766578,19.0890303 C26.9396552,19.0890303 28.6236737,20.7760303 28.6236737,22.8480303 C28.6236737,24.9230303 26.9396552,26.6180303 24.8766578,26.6180303 Z M24.8766578,26.6180303" id="gym--dark-grey" fill="#3A434E" sketch:type="MSShapeGroup"></path>
    </g>
</svg>

<svg width="32" height="232" viewBox="0 0 32 232" xmlns="http://www.w3.org/2000/svg" xmlns:sketch="http://www.bohemiancoding.com/sketch/ns"><title>gym</title><g sketch:type="MSPage" fill="none"><path d="M18.743 135.052c.139.14.306.252.487.329.146.058.293.079.453.092l.118.022h3.064c.822 0 1.49-.662 1.49-1.486 0-.822-.668-1.5-1.49-1.5h-2.451l-3.395-3.421-.004-.007c-.287-.289-.667-.436-1.054-.436-.381 0-.764.147-1.059.436l-.011.021-3.816 3.843c-.291.289-.436.673-.436 1.059 0 .38.144.764.436 1.05l3.404 3.427v5.719c0 .829.664 1.506 1.478 1.506.826 0 1.5-.677 1.5-1.506v-6.338l-.024-.138c-.019-.145-.035-.298-.091-.436-.084-.183-.193-.347-.327-.486v-.002l-2.783-2.798 1.729-1.746 2.782 2.796zm-11.624 1.643c-3.378 0-6.119 2.761-6.119 6.153 0 3.388 2.741 6.152 6.119 6.152 3.379 0 6.127-2.764 6.127-6.152 0-3.392-2.748-6.153-6.127-6.153zm0 9.923c-2.061 0-3.743-1.695-3.743-3.77 0-2.072 1.682-3.759 3.743-3.759 2.065 0 3.746 1.687 3.746 3.759 0 2.075-1.681 3.77-3.746 3.77zm12.792-21.618c-1.31 0-2.382 1.066-2.382 2.388 0 1.335 1.072 2.402 2.382 2.402 1.317 0 2.377-1.067 2.377-2.402 0-1.322-1.06-2.388-2.377-2.388zm4.966 11.695c-3.377 0-6.125 2.761-6.125 6.153 0 3.388 2.748 6.152 6.125 6.152 3.374 0 6.123-2.764 6.123-6.152 0-3.392-2.749-6.153-6.123-6.153zm0 9.923c-2.069 0-3.748-1.695-3.748-3.77 0-2.072 1.679-3.759 3.748-3.759 2.063 0 3.747 1.687 3.747 3.759 0 2.075-1.684 3.77-3.747 3.77zm0 0" id="gym--white" fill="#206FAC" sketch:type="MSShapeGroup"/><path d="M18.743 95.052c.139.14.306.252.487.329.146.058.293.079.453.092l.118.022h3.064c.822 0 1.49-.662 1.49-1.486 0-.822-.668-1.5-1.49-1.5h-2.451l-3.395-3.421-.004-.007c-.287-.289-.667-.436-1.054-.436-.381 0-.764.147-1.059.436l-.011.021-3.816 3.843c-.291.289-.436.673-.436 1.059 0 .38.144.764.436 1.05l3.404 3.427v5.719c0 .829.664 1.506 1.478 1.506.826 0 1.5-.677 1.5-1.506v-6.338l-.024-.138c-.019-.145-.035-.298-.091-.436-.084-.183-.193-.347-.327-.486v-.002l-2.783-2.798 1.729-1.746 2.782 2.796zm-11.624 1.643c-3.378 0-6.119 2.761-6.119 6.153 0 3.388 2.741 6.152 6.119 6.152 3.379 0 6.127-2.764 6.127-6.152 0-3.392-2.748-6.153-6.127-6.153zm0 9.923c-2.061 0-3.743-1.695-3.743-3.77 0-2.072 1.682-3.759 3.743-3.759 2.065 0 3.746 1.687 3.746 3.759 0 2.075-1.681 3.77-3.746 3.77zm12.792-21.618c-1.31 0-2.382 1.066-2.382 2.388 0 1.335 1.072 2.402 2.382 2.402 1.317 0 2.377-1.067 2.377-2.402 0-1.322-1.06-2.388-2.377-2.388zm4.966 11.695c-3.377 0-6.125 2.761-6.125 6.153 0 3.388 2.748 6.152 6.125 6.152 3.374 0 6.123-2.764 6.123-6.152 0-3.392-2.749-6.153-6.123-6.153zm0 9.923c-2.069 0-3.748-1.695-3.748-3.77 0-2.072 1.679-3.759 3.748-3.759 2.063 0 3.747 1.687 3.747 3.759 0 2.075-1.684 3.77-3.747 3.77zm0 0" fill="#fff" sketch:type="MSShapeGroup"/><path d="M18.743 55.052c.139.14.306.252.487.329.146.058.293.079.453.092l.118.022h3.064c.822 0 1.49-.662 1.49-1.486 0-.822-.668-1.5-1.49-1.5h-2.451l-3.395-3.421-.004-.007c-.287-.289-.667-.436-1.054-.436-.381 0-.764.147-1.059.436l-.011.021-3.816 3.843c-.291.289-.436.673-.436 1.059 0 .38.144.764.436 1.05l3.404 3.427v5.719c0 .829.664 1.506 1.478 1.506.826 0 1.5-.677 1.5-1.506v-6.338l-.024-.138c-.019-.145-.035-.298-.091-.436-.084-.183-.193-.347-.327-.486v-.002l-2.783-2.798 1.729-1.746 2.782 2.796zm-11.624 1.643c-3.378 0-6.119 2.761-6.119 6.153 0 3.388 2.741 6.152 6.119 6.152 3.379 0 6.127-2.764 6.127-6.152 0-3.392-2.748-6.153-6.127-6.153zm0 9.923c-2.061 0-3.743-1.695-3.743-3.77 0-2.072 1.682-3.759 3.743-3.759 2.065 0 3.746 1.687 3.746 3.759 0 2.075-1.681 3.77-3.746 3.77zm12.792-21.618c-1.31 0-2.382 1.066-2.382 2.388 0 1.335 1.072 2.402 2.382 2.402 1.317 0 2.377-1.067 2.377-2.402 0-1.322-1.06-2.388-2.377-2.388zm4.966 11.695c-3.377 0-6.125 2.761-6.125 6.153 0 3.388 2.748 6.152 6.125 6.152 3.374 0 6.123-2.764 6.123-6.152 0-3.392-2.749-6.153-6.123-6.153zm0 9.923c-2.069 0-3.748-1.695-3.748-3.77 0-2.072 1.679-3.759 3.748-3.759 2.063 0 3.747 1.687 3.747 3.759 0 2.075-1.684 3.77-3.747 3.77zm0 0" fill="#67737B" sketch:type="MSShapeGroup"/><path d="M18.743 15.052c.139.14.306.252.487.329.146.058.293.079.453.092l.118.022h3.064c.822 0 1.49-.662 1.49-1.486 0-.822-.668-1.5-1.49-1.5h-2.451l-3.395-3.421-.004-.007c-.287-.289-.667-.436-1.054-.436-.381 0-.764.147-1.059.436l-.011.021-3.816 3.843c-.291.289-.436.673-.436 1.059 0 .38.144.764.436 1.05l3.404 3.427v5.719c0 .829.664 1.506 1.478 1.506.826 0 1.5-.677 1.5-1.506v-6.338l-.024-.138c-.019-.145-.035-.298-.091-.436-.084-.183-.193-.347-.327-.486v-.002l-2.783-2.798 1.729-1.746 2.782 2.796zm-11.624 1.643c-3.378 0-6.119 2.761-6.119 6.153 0 3.388 2.741 6.152 6.119 6.152 3.379 0 6.127-2.764 6.127-6.152 0-3.392-2.748-6.153-6.127-6.153zm0 9.923c-2.061 0-3.743-1.695-3.743-3.77 0-2.072 1.682-3.759 3.743-3.759 2.065 0 3.746 1.687 3.746 3.759 0 2.075-1.681 3.77-3.746 3.77zm12.792-21.618c-1.31 0-2.382 1.066-2.382 2.388 0 1.335 1.072 2.402 2.382 2.402 1.317 0 2.377-1.067 2.377-2.402 0-1.322-1.06-2.388-2.377-2.388zm4.966 11.695c-3.377 0-6.125 2.761-6.125 6.153 0 3.388 2.748 6.152 6.125 6.152 3.374 0 6.123-2.764 6.123-6.152 0-3.392-2.749-6.153-6.123-6.153zm0 9.923c-2.069 0-3.748-1.695-3.748-3.77 0-2.072 1.679-3.759 3.748-3.759 2.063 0 3.747 1.687 3.747 3.759 0 2.075-1.684 3.77-3.747 3.77zm0 0" fill="#3A434E" sketch:type="MSShapeGroup"/></g></svg>
